Newaita-dark/.DP/32/update-none.svg

<?xml version="1.0" encoding="UTF-8"?>
<svg xmlns="http://www.w3.org/2000/svg" xmlns:xlink="http://www.w3.org/1999/xlink" width="32px" height="32px" viewBox="0 0 32 32" version="1.1">
<g id="surface1">
<path style=" stroke:none;fill-rule:nonzero;fill:rgb(93.333334%,93.333334%,93.333334%);fill-opacity:1;" d="M 15.875 4.21875 C 14.644531 4.21875 13.8125 7.925781 12.675781 8.394531 C 11.535156 8.867188 8.328125 6.835938 7.457031 7.707031 C 6.585938 8.578125 8.617188 11.785156 8.144531 12.925781 C 7.675781 14.0625 3.96875 14.894531 3.96875 16.125 C 3.96875 17.359375 7.675781 18.191406 8.144531 19.328125 C 8.617188 20.464844 6.585938 23.675781 7.457031 24.546875 C 8.328125 25.417969 11.535156 23.386719 12.675781 23.855469 C 13.8125 24.328125 14.644531 28.035156 15.875 28.035156 C 17.109375 28.035156 17.941406 24.328125 19.078125 23.855469 C 20.214844 23.386719 23.425781 25.417969 24.296875 24.546875 C 25.167969 23.675781 23.136719 20.464844 23.605469 19.328125 C 24.078125 18.191406 27.785156 17.359375 27.785156 16.125 C 27.785156 14.894531 24.078125 14.0625 23.605469 12.925781 C 23.136719 11.785156 25.167969 8.578125 24.296875 7.707031 C 23.425781 6.835938 20.214844 8.867188 19.078125 8.394531 C 17.941406 7.925781 17.109375 4.21875 15.875 4.21875 Z M 20.535156 10.824219 C 21.003906 10.832031 21.4375 11.089844 21.667969 11.5 C 21.898438 11.914062 21.886719 12.417969 21.644531 12.820312 L 17.015625 20.757812 C 16.808594 21.113281 16.449219 21.347656 16.046875 21.402344 C 15.640625 21.453125 15.234375 21.316406 14.945312 21.027344 L 10.976562 17.058594 C 10.636719 16.726562 10.5 16.238281 10.621094 15.777344 C 10.742188 15.320312 11.101562 14.960938 11.558594 14.839844 C 12.019531 14.71875 12.507812 14.855469 12.839844 15.195312 L 15.601562 17.957031 L 19.371094 11.492188 C 19.605469 11.074219 20.050781 10.816406 20.535156 10.824219 Z M 20.535156 10.824219 "/>
</g>
</svg>

<svg xmlns="http://www.w3.org/2000/svg" width="32pt" height="32pt" viewBox="0 0 32 32"><path d="M15.875 4.219c-1.934 0-1.441 3.367-3.23 4.11-1.786.737-3.82-1.99-5.188-.622-1.367 1.367 1.36 3.402.621 5.188-.742 1.789-4.11 1.296-4.11 3.23s3.368 1.445 4.11 3.23c.738 1.79-1.988 3.825-.621 5.192s3.402-1.36 5.188-.621c1.789.742 1.296 4.11 3.23 4.11s1.445-3.368 3.23-4.11c1.79-.738 3.825 1.988 5.192.62 1.367-1.366-1.36-3.401-.621-5.19.742-1.786 4.11-1.297 4.11-3.231s-3.368-1.441-4.11-3.23c-.738-1.786 1.988-3.82.62-5.188-1.366-1.367-3.401 1.36-5.19.621-1.786-.742-1.297-4.11-3.231-4.11zm4.648 6.605c.47.004.907.258 1.137.668.235.41.23.914-.008 1.32L16.36 22.07a1.32 1.32 0 0 1-1.078.664 1.309 1.309 0 0 1-1.136-.55l-3.31-4.63a1.316 1.316 0 0 1 .941-2.09 1.31 1.31 0 0 1 1.204.56l2.11 2.956 4.273-7.476a1.32 1.32 0 0 1 1.16-.68zm0 0" fill="#bdbdbd"/></svg>
